X:4480
L:1/8
M:6/8
K:G
 GBdc B2 | GBdc B/c/d | GBdc B2 | cAAG F/G/A :| BGGE G2 | BGGE F/G/A | BGGE G2 | DGAG F/G/A :|

